X:250
T:Johnny the Blacksmith
C:Traditional - Arr. Joe Carr
N:
R:bluegrass
L:1/8
Q:1/4=220
M:4/4
K:A
z6 EF |: "A"AB cA "D"Bc dB | "A"c2 [c2A2] [c2A2] EF | "A"AB cA "D"Bc dB | "A"c2 [c2E2] [c2E2] EF | 
"A"AB cA "D"Bc dB | "A"cd ea "D"fe fa | "E"ed ce dc Bd |1 (3cd"A"c A2 A2 EF :|2 (3cd"A"c A2 A2 fg | 
|: "A"ae ga (3fgf ed | cA BA c2 A2 | ae ga (3fgf eg | "E"be =g^g f2 eg | "A"ae ga (3fgf ec | 
"D"dA cd Bc Ac | "E"de fg af df |1 e"E"c BG "A"A2 fg :|2 e"E"d cB "A"A4 | 


